F[ERK1
CUT[HIER STEH ICH AM BERGE]
REG[Europa, Mitteleuropa, Deutschland, Schwalbach]
KEY[E0571B 16  D 3/4]
MEL[3__  2__5__6_+1_  +1__7__
    5__  2__5__6_+1_  +1__7__
    3__  2__5__6_+1_  +1__7__
    5__  2__5__6_+1_  +1__7__
    5_+1_  +1__7__6_.6  6__5__
    2__  2_4#_6_+1_+1__  7__.6_
    5__  +1__7__6_.6  6__5__
    3_5_  5__4__2_4_  3_5_+1__
    5__  +1__7__6_.6  6__5__
    3_5_  5__4__2_4_  3___ //] >>
FCT[Liebes - Lied]
